X:1
T:The 42 pound cheque
C:Polka, abc file by Bernard Loffet
L:1/8
Q:460
M:4/4
K:C
|:[G2C,2][c2C,2][A2F,2][cF,]A|[G2C,2][C2C,2][E2C,2][G2C,2]|[F2G,2][D2G,2][A2G,2][D2G,2]|[GG,]A[GG,]F[D2G,2][C2G,2]|[C2C,2][c2C,2][A2F,2][cF,]A|[G2C,2][C2C,2][E2C,2][G2C,2]| \
[F2F,2][D2F,2][d2G,2]G,e|[d2G,2][c2G,2][c2C,2]C,A:|:[G2C,2][c2C,2][e2C,2][c2C,2]|[f2F,2]F,e[d2F,2][c2F,2]|[B2G,2][G2G,2][d2G,2][G2G,2]|[dF,]e[dF,]c[A2G,2][G2G,2]| \
[G2C,2][c2C,2][e2C,2][c2C,2]|[f2F,2]F,e[d2F,2][c2F,2]|[BG,]A[G2C,2][A2G,2][B2G,2]|1[c2C,2]C,2[c2C,2]C,A:|2[c2C,2]C,2[c2C,2]C,2| \
Z:Created with TablEdit http://www.tabledit.com/
